X:1
T:Buxtehude - Aria:  La Capricciosa in G Minor.
%%score { ( 1 2 ) | ( 3 4 5 ) }
L:1/8
Q:1/4=100
M:4/4
K:G
V:1 treble nm="Harpsichord" snm="Hch."
V:2 treble 
V:3 bass 
V:4 bass 
V:5 bass 
V:1
"^Partita 2"!f! d>c B/A/G/=F/ g>=f e/d/c/B/ | e>d c/B/A/c/ MB>A G/e/Md/c/ | %2
 B>A G/A/MG/=F/ z/ d/c/B/ A/B/MA/G/ | B/F/G/A/ TG>F G4 :: MB>A G/=F/E/D/ Mc>B A/B/MA/G/ | %5
 F>E D/E/MD/C/ MB,>A, G,2 | z2 z/ C/D z/ c/PB/A/ G/=F/E/D/ | c/B/A/G/ MG>F G2 MG2 :| %8
V:2
 B,C D2 E=F G2 | G3 F G2 B,C | D4 E4 | x4 z/ E/MD/C/ MD2 :: DC B,2 C x3 | x8 | %6
 z/ A,/B,/C/ B,2 C2 x2 | C x5 [B,D]2 :| %8
V:3
 G,3 B, C3 E | CA, D2 z A,3 | G,A, B,2 C3 ^C | D3 =C B,>A, MB,2 :: G,2 G,2 z G,CB, | %5
 A, PG,2 F, G,2 z/ D,/E,/F,/ | G,3- G,/=F,/ E,^F, G,2 | E,2 z D, z z/ D,/- G,2 :| %8
V:4
 x8 | x8 | x8 | z ^C, D,2 G,2 MG,G,, :: x4 E,2 C,2 | D,4 z G,,3 | z2 G,,2 A,,2 B,,2 | %7
 C,C,, D,,2 z/ G,,3/2- [G,,B,,D,]2 :| %8
V:5
 x8 | x8 | x8 | x8 :: x8 | x8 | x8 | x4 z PB,,- x2 :| %8

